X:97
M:4/4
L:1/4
K:G
D/ D/ | G G/ A/ B/ G/ B/ c/       | d d/ d/ B A/ G/    | A A A A      | A/ B/ A/ F/ D D | G/ F/ G/ A/ B A/ A/ | B c d c/ B/ | A A/B/ A G/ G/ | A G/ F/ G2 | d2 B3/2 A/       | B/ c/ B/ A/ G3/2 A/         | B B/ c/ d c/ B/ | A A/ B/ A D  | G2 G3/2 A/    | B/ A/ B/ c/ d !sintro!c/ B/ | A A B B/ A/ | G G G !eintro!|]
